src/ios-settings.svg

<?xml version="1.0" encoding="utf-8"?>
<!-- Generated by IcoMoon.io -->
<!DOCTYPE svg PUBLIC "-//W3C//DTD SVG 1.1//EN" "http://www.w3.org/Graphics/SVG/1.1/DTD/svg11.dtd">
<svg version="1.1" xmlns="http://www.w3.org/2000/svg" xmlns:xlink="http://www.w3.org/1999/xlink" width="512" height="512" viewBox="0 0 512 512">
<path fill="#000000" d="M352 104c8.837 0 16 7.163 16 16s-7.163 16-16 16-16-7.163-16-16 7.163-16 16-16zM352 88c-17.645 0-32 14.355-32 32s14.355 32 32 32 32-14.355 32-32-14.355-32-32-32v0z"></path>
<path fill="#000000" d="M352 376c8.837 0 16 7.163 16 16s-7.163 16-16 16-16-7.163-16-16 7.163-16 16-16zM352 360c-17.645 0-32 14.355-32 32s14.355 32 32 32 32-14.355 32-32-14.355-32-32-32v0z"></path>
<path fill="#000000" d="M160 240c8.837 0 16 7.163 16 16s-7.163 16-16 16-16-7.163-16-16 7.163-16 16-16zM160 224c-17.645 0-32 14.355-32 32s14.355 32 32 32 32-14.355 32-32-14.355-32-32-32v0z"></path>
<path fill="#000000" d="M207.32 248h272.68v16h-272.68c0.439-2.604 0.68-5.273 0.68-8s-0.24-5.396-0.68-8z"></path>
<path fill="#000000" d="M112 256c0 2.727 0.24 5.396 0.68 8h-80.68v-16h80.68c-0.44 2.604-0.68 5.273-0.68 8z"></path>
<path fill="#000000" d="M399.32 384h80.68v16h-80.68c0.439-2.604 0.68-5.273 0.68-8s-0.24-5.396-0.68-8z"></path>
<path fill="#000000" d="M304 392c0 2.727 0.24 5.396 0.68 8h-272.68v-16h272.68c-0.44 2.604-0.68 5.273-0.68 8z"></path>
<path fill="#000000" d="M399.32 112h80.68v16h-80.68c0.439-2.604 0.68-5.273 0.68-8s-0.24-5.396-0.68-8z"></path>
<path fill="#000000" d="M304.68 112c-0.439 2.604-0.68 5.273-0.68 8s0.24 5.396 0.68 8h-272.68v-16h272.68z"></path>
</svg>

<?xml version="1.0" encoding="utf-8"?>
<!-- Generator: Adobe Illustrator 16.2.1, SVG Export Plug-In . SVG Version: 6.00 Build 0)  -->
<!DOCTYPE svg PUBLIC "-//W3C//DTD SVG 1.1//EN" "http://www.w3.org/Graphics/SVG/1.1/DTD/svg11.dtd">
<svg version="1.1" id="Layer_1" xmlns="http://www.w3.org/2000/svg" xmlns:xlink="http://www.w3.org/1999/xlink" x="0px" y="0px"
	 width="512px" height="512px" viewBox="0 0 512 512" enable-background="new 0 0 512 512" xml:space="preserve">
<g>
	<path d="M352,104c8.837,0,16,7.163,16,16s-7.163,16-16,16s-16-7.163-16-16S343.163,104,352,104 M352,88c-17.645,0-32,14.355-32,32
		s14.355,32,32,32s32-14.355,32-32S369.645,88,352,88L352,88z"/>
	<path d="M352,376c8.837,0,16,7.163,16,16s-7.163,16-16,16s-16-7.163-16-16S343.163,376,352,376 M352,360c-17.645,0-32,14.355-32,32
		s14.355,32,32,32s32-14.355,32-32S369.645,360,352,360L352,360z"/>
	<g>
		<path d="M160,240c8.837,0,16,7.163,16,16s-7.163,16-16,16s-16-7.163-16-16S151.163,240,160,240 M160,224
			c-17.645,0-32,14.355-32,32s14.355,32,32,32s32-14.355,32-32S177.645,224,160,224L160,224z"/>
		<g>
			<path d="M207.32,248H480v16H207.32c0.439-2.604,0.68-5.273,0.68-8S207.76,250.604,207.32,248z"/>
			<path d="M112,256c0,2.727,0.24,5.396,0.68,8H32v-16h80.68C112.24,250.604,112,253.273,112,256z"/>
			<path d="M399.32,384H480v16h-80.68c0.439-2.604,0.68-5.273,0.68-8S399.76,386.604,399.32,384z"/>
			<path d="M304,392c0,2.727,0.24,5.396,0.68,8H32v-16h272.68C304.24,386.604,304,389.273,304,392z"/>
			<path d="M399.32,112H480v16h-80.68c0.439-2.604,0.68-5.273,0.68-8S399.76,114.604,399.32,112z"/>
			<path d="M304.68,112c-0.439,2.604-0.68,5.273-0.68,8s0.24,5.396,0.68,8H32v-16H304.68z"/>
		</g>
	</g>
</g>
</svg>
